X:108
T:Lillie McEvoy's* (bd)
B:NFID.110a ("untitled barndance")
108lill_mc
S:SD
L:1/8
M:6/8
R:jig
Q:300
K:C
G2e d2c|Gce d2c|A^GA d2f|a3 a2a|
aba g2e|d2B A2B|1 [c2E2]c dcA|G2F E2|
[2 cBc e2d|c2e e3||edc G3|edc G2e|fed A3|
fed A2c|B2A ^G2A|1 B3-B2B|cdc cBA|G3 c2d:|
[2 B3 [B3G3]|cdc B2d|c3 E2F||

%%%

